X:88
T: ES WARN EINMAL ZWEI BAUERNSOEHN
N: E0050C
O: Europa, Mitteleuropa, Deutschland, Trier
R: erzaehlendes Volks - Lied, Sage, Mord
M: 3/4
L: 1/8
K: G
D | DDG2B2 | AGA2z
D | DDA2c2 | Bed2z
c | Bcd2c2 | Bdd2z
G | GGc2B2 | AFG2z

@@@ Tune index: 3738
